www/assets/icons/face_6.svg

<svg width="24" height="24" viewBox="0 0 24 24" xmlns="http://www.w3.org/2000/svg" fill='currentColor'><path d="M12 2C6.48 2 2 6.48 2 12C2 17.52 6.48 22 12 22C17.52 22 22 17.52 22 12C22 6.48 17.52 2 12 2ZM12 20C7.59 20 4 16.41 4 12C4 11.99 4 11.98 4 11.97C6.31 11.75 7.43 10.38 8.34 8.56C8.51 8.21 8.85 8 9.24 8H14.77C15.15 8 15.49 8.21 15.66 8.55C16.56 10.35 17.65 11.74 20 11.96C20 11.97 20 11.98 20 11.99C20 16.41 16.41 20 12 20Z"/><path d="M9 14.25C9.69036 14.25 10.25 13.6904 10.25 13C10.25 12.3096 9.69036 11.75 9 11.75C8.30964 11.75 7.75 12.3096 7.75 13C7.75 13.6904 8.30964 14.25 9 14.25Z"/><path d="M15 14.25C15.6904 14.25 16.25 13.6904 16.25 13C16.25 12.3096 15.6904 11.75 15 11.75C14.3096 11.75 13.75 12.3096 13.75 13C13.75 13.6904 14.3096 14.25 15 14.25Z"/></svg>

<svg xmlns="http://www.w3.org/2000/svg" width="24" height="24" viewBox="0 0 24 24" fill='currentColor'><path d="M12 2C6.48 2 2 6.48 2 12s4.48 10 10 10 10-4.48 10-10S17.52 2 12 2m0 18c-4.41 0-8-3.59-8-8v-.03c2.31-.22 3.43-1.59 4.34-3.41.17-.35.51-.56.9-.56h5.53c.38 0 .72.21.89.55.9 1.8 1.99 3.19 4.34 3.41v.03c0 4.42-3.59 8.01-8 8.01"/><path d="M9 14.25a1.25 1.25 0 1 0 0-2.5 1.25 1.25 0 0 0 0 2.5m6 0a1.25 1.25 0 1 0 0-2.5 1.25 1.25 0 0 0 0 2.5"/></svg>
